X:1
T: Balgeddie's March
C:
R:Reel
Q:232
K:D
M:4/4
L:1/8
|:d4 ed cA|d2f2 a2f2|g4 fe dc|B2ed c2A2|
d4 ed cA|d2f2 a2f2|gb ag f2d2|1cd ec d2 ((3ABc):|2cd ec d2FG|
|:A2dc d2A2|cd ec d2A2|BA Bc dA FD|EF GA B2c2|
d2A2 d2A2|cd ec d2A2|Bc dB A2d2|1cd ec d2FG:|2cd ec|d2 ((3ABc)|
d4 ed cA|d2f2 a2f2|g4 fe dc|B2ed c2A2|d4 ed cA|d2f2 a2f2|gb ag f2d2|cd ec d2FG|
A2dc d2A2|cd ec d2A2|BA Bc dA FD|EF GA B2c2|d2A2 e2A2|fg af g2b2|fg af g2b2|cd ec d4||
